X:1
T: MacArthur Road
C: Dave Richardson
M: 4/4
L: 1/8
R: reel
K: Emaj
|:B2 (3BBB Bcef|g2 (3ggg fece|f3g fefg|a2 g2 fece||
  B2 (3BBB Bcef|g2 (3ggg fece|f3g fec2|B cef e2z2:|
  be (3eee bec'e|b2g2 fece|f3g fece|a2 g2 fece||
  be (3eee bec'e|b2g2 fece|f3g fec2|Bcef e2z2|
  be (3eee bec'e|b2g2 fece|f3g fece|a2 g2 fec2||
  B2 (3BBB Bcef|g2 (3ggg fece|f3g fec2|Bcef e2z2|
%%%%%
